src/trash.svg

<svg xmlns="http://www.w3.org/2000/svg" viewBox="0 0 20 20"><path d="M6 2l2-2h4l2 2h4v2H2V2h4zM3 6h14l-1 14H4L3 6zm5 2v10h1V8H8zm3 0v10h1V8h-1z"/></svg>

<?xml version="1.0" encoding="UTF-8" standalone="no"?>
<svg width="20px" height="20px" viewBox="0 0 20 20" version="1.1" xmlns="http://www.w3.org/2000/svg" xmlns:xlink="http://www.w3.org/1999/xlink">
    <!-- Generator: Sketch 3.7.2 (28276) - http://www.bohemiancoding.com/sketch -->
    <title>trash</title>
    <desc>Created with Sketch.</desc>
    <defs></defs>
    <g id="Page-1" stroke="none" stroke-width="1" fill="none" fill-rule="evenodd">
        <g id="trash" fill="#000000">
            <path d="M2,2 L18,2 L18,4 L2,4 L2,2 Z M8,0 L12,0 L14,2 L6,2 L8,0 Z M3,6 L17,6 L16,20 L4,20 L3,6 Z M8,8 L9,8 L9,18 L8,18 L8,8 Z M11,8 L12,8 L12,18 L11,18 L11,8 Z" id="Combined-Shape"></path>
        </g>
    </g>
</svg>
